X: 11059
T: Dublin, The
R: reel
M: 4/4
K: Dmajor
dF~F2 dfec|dF~F2 AFEF|dF~F2 dfed|cABF AFEF|
dF~F2 dfec|dF~F2 AFEF|~d2c dfed|cABF AFEf||
eA~A2 egfd|eA~A2 BAFf|eA~A2 egfe|dBcA BAFf|
eA~A2 egfd|eA~A2 BAFf|~e3d egfe|dBcA BAFA||
d3c dAFA|dcdA FDFA|d2dc dfed|cABF AFEF|
d3c dAFA|dcdA FDFA|~d3f ~e3g|fdBc defe||

